X:67
T: REGEN REGEN SCHUREN
N: K1024
O: Europa, Mitteleuropa, Deutschland, Ruhrgebiet, Kettwig
R: Kinder -, Natur -, Regen - Lied
M: 2/4
L: 1/8
K: G
 | GGAA | B2G
D | GGAA | B2G
G | BBAG | B2B
B | AAAB | G2G
B | A2GB | A2Gz
dGGG | GFG2

